src/assets/outline/VideoSlash.svg

<svg width="24" height="24" viewBox="0 0 24 24"  xmlns="http://www.w3.org/2000/svg">
<path d="M4.3 19.92C4.13 19.92 3.96 19.86 3.82 19.75C2.81 18.92 2.25 17.59 2.25 16V8C2.25 4.58 3.58 3.25 7 3.25H13C15.04 3.25 17.18 3.63 17.64 6.48C17.71 6.89 17.43 7.27 17.02 7.34C16.61 7.41 16.23 7.13 16.16 6.72C15.95 5.42 15.4 4.75 13 4.75H7C4.42 4.75 3.75 5.42 3.75 8V16C3.75 16.65 3.88 17.86 4.77 18.59C5.09 18.85 5.14 19.33 4.87 19.65C4.73 19.83 4.51 19.92 4.3 19.92Z" />
<path d="M13 20.75H8C7.59 20.75 7.25 20.41 7.25 20C7.25 19.59 7.59 19.25 8 19.25H13C15.58 19.25 16.25 18.58 16.25 16V11C16.25 10.59 16.59 10.25 17 10.25C17.41 10.25 17.75 10.59 17.75 11V16C17.75 19.42 16.42 20.75 13 20.75Z" />
<path d="M20.7998 18.04C20.3698 18.04 19.8398 17.9 19.2098 17.46L16.5698 15.61C16.2298 15.37 16.1498 14.9 16.3898 14.57C16.6298 14.23 17.0898 14.15 17.4298 14.39L20.0698 16.24C20.5098 16.55 20.8298 16.58 20.9598 16.51C21.0898 16.44 21.2498 16.17 21.2498 15.63V7C21.2498 6.59 21.5898 6.25 21.9998 6.25C22.4098 6.25 22.7498 6.59 22.7498 7V15.62C22.7498 17.05 22.0598 17.62 21.6498 17.83C21.4598 17.93 21.1698 18.04 20.7998 18.04Z" />
<path d="M2.01996 22.9399C1.82996 22.9399 1.63996 22.8699 1.48996 22.7199C1.19996 22.4299 1.19996 21.9499 1.48996 21.6599L21.49 1.65988C21.78 1.36988 22.26 1.36988 22.55 1.65988C22.84 1.94988 22.84 2.42988 22.55 2.71988L2.54996 22.7199C2.40996 22.8699 2.20996 22.9399 2.01996 22.9399Z" />
</svg>

<?xml version="1.0" encoding="UTF-8"?>
<svg width="24" height="24" viewBox="0 0 24 24" xmlns="http://www.w3.org/2000/svg">
 <path d="m4.3 19.92c-0.17 0-0.34-0.06-0.48-0.17-1.01-0.83-1.57-2.16-1.57-3.75v-8c0-3.42 1.33-4.75 4.75-4.75h6c2.04 0 4.18 0.38 4.64 3.23 0.07 0.41-0.21 0.79-0.62 0.86s-0.79-0.21-0.86-0.62c-0.21-1.3-0.76-1.97-3.16-1.97h-6c-2.58 0-3.25 0.67-3.25 3.25v8c0 0.65 0.13 1.86 1.02 2.59 0.32 0.26 0.37 0.74 0.1 1.06-0.14 0.18-0.36 0.27-0.57 0.27z"/>
 <path d="m13 20.75h-5c-0.41 0-0.75-0.34-0.75-0.75s0.34-0.75 0.75-0.75h5c2.58 0 3.25-0.67 3.25-3.25v-5c0-0.41 0.34-0.75 0.75-0.75s0.75 0.34 0.75 0.75v5c0 3.42-1.33 4.75-4.75 4.75z"/>
 <path d="m20.8 18.04c-0.43 0-0.96-0.14-1.59-0.58l-2.64-1.85c-0.34-0.24-0.42-0.71-0.18-1.04 0.24-0.34 0.7-0.42 1.04-0.18l2.64 1.85c0.44 0.31 0.76 0.34 0.89 0.27s0.29-0.34 0.29-0.88v-8.63c0-0.41 0.34-0.75 0.75-0.75s0.75 0.34 0.75 0.75v8.62c0 1.43-0.69 2-1.1 2.21-0.19 0.1-0.48 0.21-0.85 0.21z"/>
 <path d="m2.02 22.94c-0.19 0-0.38-0.07-0.53-0.22-0.29-0.29-0.29-0.77 0-1.06l20-20c0.29-0.29 0.77-0.29 1.06 0s0.29 0.77 0 1.06l-20 20c-0.14 0.15-0.34 0.22-0.53 0.22z"/>
</svg>
